X:1
T:Eccov'il cor
T:Benedetto Ferrari
T:Source : Musiche Varie a voce sola---Libro secondo---Venetia---B.Magni---1637. Editor : André Vierendeels (0401/17).
T:Notes : Original clefs : C1, F4 Original note values have been halved Figures in BC are notated in original print
T:Eccov'il cor
T:©
T:©
T:©
C:Benedetto Ferrari
Z:©
%%score 1 { 2 | 3 }
L:1/8
Q:1/4=106
M:6/4
K:F
V:1 treble nm="Soprano" snm="S"
V:2 treble nm="MusicXML Part"
V:3 bass 
V:1
 A3 G F2 F3 G A2 | G4 F2 E4 E2 | cB AB cA BA GA BG | AG FG AF G6 | G6 G4 G2 | G4 F2 F4 E2- | %6
w: Ec- co- vi, ec- co- v'il|cor, o bel- la|se- * * * * * ri- * * * * *|tel _ _ _ _ _ pur|con l'u- na'e|l'al- tra stel- la,|
w: Fe- mi- na, fe- mi- na|nel mi- ra- re|puo _ _ _ _ _ far _ _ _ _ _|del- * * * * * le|dol- cez- ze'al|ciel vo- la- re,|
w: Si- mi- li, si- mi- li'ai|dol- ci fa- vi|pro- * * * * * vo'i _ _ _ _ _|col- * * * * * p'in|mi- rar- vi,'e|piu so- a- vi,|
w: L'a- ni- ma, l'a- ni- ma|sol m'of- fen- de,|ch'ad _ _ _ _ _ o- * * * * *|gni _ _ _ _ _ vol-|to'il tem- po'in-|fi- die ten- de,|
[M:3/4] D6 :: z6 |[M:6/4] A2 B2 c2 d4 c2 | c6 B4 z2 | z dcdBc A4 z2 | z2 G4- G2 G2 _A2 | %12
w: _||e s'il suo fin vi|spia- ce|la- scia- te- lo mo- rir|ch'ei _ mo- re'in|
w: _||oc- cho scoc- ca- te'il|te- lo|fa- te- mi ve- nir men,|ch'io _ va- do|
w: _||l'es- ser da voi an-|ci- so|e co- me vi- * ta|ha- ver in Pa-|
w: _||Lil- la, hab- * bi|sen- no,|al fi- ne o- * gni|va- * go giar-|
 _A2 G4 F4 z2 | z AGAFG E4 z2 | z fefde ^c4 z2 | z2 e6 e4- | e4 e2 e4 e2 |[M:3/4] !fermata!d6 :| %18
w: pa- * ce,|la- scia- te- lo mo- rir,|la- scia- te- lo mo- rir|ch'ei mo-|* re'in pa- ce.|_|
w: al cie- lo|fa- te- mi ve- nir men,|fa- te- mi ve- nir men|ch'io va-|* di'al cie- lo.|_|
w: ra di- so|e co- me vi- * ta,|e co- me vi- t'ha- ver|in Pa-|* ra- di- so.|_|
w: din co- pron|co- pron le bri- * ne,|o- gni va- go giar- din|co- pron|_ le bri- de.|_|
V:2
"^BC" z12 | z12 | z12 | z12 | z12 | z12 |[M:3/4] z6 :: z6 |[M:6/4] z12 | z12 | z12 | z12 | z12 | %13
 z12 | z12 | z12 | z12 |[M:3/4] z6 :| %18
V:3
 D,,6 D,3 E, F,2 | G,6 A,4 A,,2 | A,2 F,4 G,2 E,4 | F,6 CB, A,B, CA, | %4
 B,A, G,A, B,G, A,G, ^F,G, A,F, | G,6 A,2 A,,4 |[M:3/4] D,6 :: C,2 D,2 E,2 | %8
[M:6/4] F,2 G,2 A,2 B,2 _E,4 | F,6 B,,D CD B,C | A,4 G,2 F,E, D,E, C,D, | =B,,6 _B,,6 | %12
 C,6 F,,B,, A,,B,, G,,A,, | F,,6 z C, B,,C, A,,B,, | G,,6 z F, E,F, D,E, | ^C,6 =C,6 | B,,6 A,,6 | %17
[M:3/4] !fermata!D,6 :| %18

